X:0687
M:C
L:1/8
Q:1/2=104
K:G
g/a/|bgaf        gedB|ceBd eAA g/a/|bgaf        gdeg|dcBA G/G/G Gg/a/|
     bgaf        gedB|ceBd eAAc    |BGcA        dBge|dBcA G/G/G z   |]

